X: 39644
T: Templeglantine, The
R: slide
M: 12/8
K: Dmajor
F2A AFA Bcd ~A2A|F2A D2F ~E2E EDE|
F2A AFA Bcd ~A2A|F2A E2A D3 D3:|
~f2d B2A Bcd A2f|f2e def ~e2e ede|
fed B2A Bcd ~A2A|F2A E2A D3 D3:|

